svg/fluentui-system-icons/ic_fluent_box_checkmark_20_regular.svg

<svg width="20" height="20" viewBox="0 0 20 20" fill="none" xmlns="http://www.w3.org/2000/svg">
<path d="M11.2999 2.4808C10.4654 2.14702 9.53457 2.14702 8.70013 2.4808L2.94291 4.78369C2.37343 5.01148 2 5.56305 2 6.1764V13.8223C2 14.4357 2.37343 14.9873 2.94291 15.2151L8.70013 17.5179C9.14121 17.6944 9.60922 17.7775 10.0757 17.7675C9.83396 17.4407 9.62756 17.0863 9.46213 16.7097C9.32967 16.6806 9.19902 16.6405 9.07152 16.5895L3.3143 14.2866C3.12448 14.2106 3 14.0268 3 13.8223V6.23785L9.50015 8.83791V12.2047C9.75203 11.6568 10.0913 11.1574 10.5001 10.7244V8.83791L17 6.23797V9.59922C17.3578 9.78212 17.6929 10.003 18 10.2567V6.1764C18 5.56305 17.6266 5.01148 17.0571 4.78369L11.2999 2.4808ZM9.07152 3.40928C9.66755 3.17087 10.3324 3.17087 10.9285 3.40928L16.1538 5.49941L13.8751 6.41088L7.72133 3.94935L9.07152 3.40928ZM6.37504 4.48787L12.5289 6.94939L10.0001 7.96088L3.84633 5.49935L6.37504 4.48787ZM14.5 18.9995C16.9853 18.9995 19 16.9848 19 14.4995C19 12.0142 16.9853 9.99951 14.5 9.99951C12.0147 9.99951 10 12.0142 10 14.4995C10 16.9848 12.0147 18.9995 14.5 18.9995ZM13.5 15.2924L16.1464 12.646C16.3417 12.4507 16.6583 12.4507 16.8536 12.646C17.0488 12.8412 17.0488 13.1578 16.8536 13.3531L13.8536 16.3531C13.6583 16.5483 13.3417 16.5483 13.1464 16.3531L12.1464 15.3531C11.9512 15.1578 11.9512 14.8412 12.1464 14.646C12.3417 14.4507 12.6583 14.4507 12.8536 14.646L13.5 15.2924Z" fill="#212121"/>
</svg>

<svg xmlns="http://www.w3.org/2000/svg" width="20" height="20"><path d="M11.3 2.48a3.5 3.5 0 0 0-2.6 0L2.943 4.785A1.5 1.5 0 0 0 2 6.176v7.646a1.5 1.5 0 0 0 .943 1.393L8.7 17.518a3.5 3.5 0 0 0 1.376.25 5.495 5.495 0 0 1-.614-1.058 2.49 2.49 0 0 1-.39-.12l-5.758-2.303A.5.5 0 0 1 3 13.822V6.238l6.5 2.6v3.367a5.51 5.51 0 0 1 1-1.48V8.837l6.5-2.6v3.361c.358.183.693.404 1 .658v-4.08a1.5 1.5 0 0 0-.943-1.393L11.3 2.48Zm-2.228.93a2.5 2.5 0 0 1 1.857 0l5.225 2.09-2.279.91-6.154-2.46 1.35-.54ZM6.375 4.487l6.154 2.461L10 7.961 3.846 5.499l2.529-1.011ZM14.5 18.999a4.5 4.5 0 1 0 0-9 4.5 4.5 0 0 0 0 9Zm-1-3.707 2.646-2.646a.5.5 0 0 1 .708.707l-3 3a.5.5 0 0 1-.708 0l-1-1a.5.5 0 0 1 .708-.707l.646.646Z"/></svg>
